X:1
T:Original Rags
T:ORIGINAL RAGS.
T:Picked by SCOTT JOPLIN.
T:Arranged by CHAS. N.DANIELS.
T:Public Domain
T:Public Domain
T:Public Domain
T:Public Domain
C:Scott Joplin
Z:Public Domain
%%score { 1 | 2 }
L:1/8
Q:1/8=176
M:2/4
K:G
V:1 treble nm="Piano" snm="Pno."
V:2 bass 
V:1
!f! [^a^a']/[bb'][aa']/ [bb'][aa']/[bb']/ | [ff']/[gg'][ee']/- [ee']2 | %2
 [ff']/[gg'][ff']/ [gg'][ff']/[gg']/ |!<(! [^c^c']/[dd'][Bb]/- [Bb]2!<)! | %4
!ff! [cec']/[cec'][cec']/ [c_ec'][cec'] |!>(! [cdc']{/^G} A !>!D2!>)! | %6
!p! [CEc]/[CEc][CEc]/ [C_Ec][CEc] | [CDc] z z/ d/g/b/ |:!p! [dd']/g/b/[dd']/- [dd']/b/[dd']/b/ | %9
 [dd']/g/b/[dd']/- [dd']/b/[dd']/b/ | [ee']/[ee'][eg]/ [ea]/[eg]/[_ea] | !>![db]2 z/ d/g/b/ | %12
 [dd']/g/b/[dd']/- [dd']/b/[dd']/b/ | [dd']/g/b/[dd']/- [dd']/b/!<(![dd']/b/ | %14
 [^cb][ca]- [ca]!<)![c^g]/[ca]/ |!f! [=cb]/[ca][cf]/!>(! !>![ce]!>![cd]!>)! | %16
!p! [dd']/g/b/[dd']/- [dd']/b/[dd']/b/ | [dd']/g/b/[dd']/- [dd']/b/[dd']/b/ | %18
 [ee']/[ee'][eg]/ [ea]/[eg]/[ea] |!<(! [^db]2 z [Bb]!<)! |!f! [ee']/[dd'][Bb]/ [cc'][Bb] | %21
 [Bb]/[Aa][Ee]/ [Bb][Aa] | [Bdb]/[Aca][Bdb]/ [cec']/[Bdb]/[Aca] |1 [GBg] z z/ d/g/b/ :|2 %24
 [GBg] z!8va(! !>![gbd'g']2!8va)! |:!ff! [f^a]/[gb][fa]/ [gb][fa]/[gb]/ | [^df]/[eg][ce]/- [ce]2 | %27
 [^df]/[eg][df]/ [eg][df]/[eg]/ | [^A^c]/[Bd][GB]/- [GB]2 | [^A^c]/[Bd][Ac]/ [Bd][Ac]/[Bd]/ | %30
 [GB]B/G/- G/B/G | [^A^c]/[Bd][Ac]/ [Bd][Ac]/[Bd]/ | [GB]B/G/- G/B/G | %33
 [f^a]/[gb][fa]/ [gb][fa]/[gb]/ | [^df]/[eg][ce]/- [ce]2 | [^df]/[eg][df]/ [eg][df]/[eg]/ | %36
 [^A^c]/[Bd]!<(![GB]/- [GB]2!<)! |!f! [EGA]/[EGA][EGA]/ [G^Ae][GAe] | [GBd]/ge/ d/B/G | %39
 [CA]/[DB]/[Ec]/[DB]/- [DB]/[CA][DB]/ | [B,G] z !>![GBdg]2 ::[K:C]!f!!p! g/a/g/e/ f/de/ | %42
 f/g/a/e/ f/de/ | c/e/g/[cea]/- [cea]2 | z/ (c/e/g/ a/g/e/c/) | B/d/f/[Bda]/- [Bda]2 | %46
 z/ (B/d/f/ a/f/d/B/) | c/e/g/[cc']/ [B^db][Ada] | [Geg](G/A/ B/c/d/e/) | g/a/g/e/ f/de/ | %50
 f/g/a/e/ f/de/ | c/e/g/[cea]/- [cea]2 | z [cc'] [Bb][_B_b] | A/^c/e/[Aa]/ !>![_B_b]!>![Aa] | %54
 d/f/a/[dd']/ [ee'][dd'] | [cc']/e/^d/e/ [Bfa][Bfg] | [EGc][GBdg] !>![cegc']2 :| %57
[K:G]!ff! [cec']/[cec'][cec']/ [c_ec'][cec'] | [cdc']{/^G} A !>!D2 | %59
"_dim." [CEc]/[CEc][CEc]/!>(! [C_Ec][CEc] | [CDc]!>)! z z/ d/g/b/ | %61
!p! [dd']/g/b/[dd']/- [dd']/b/[dd']/b/ | [dd']/g/b/[dd']/- [dd']/b/[dd']/b/ | %63
 [ee']/[ee']g/ [ea]/[eg]/[_ea] | [db]2 z/ d/g/b/ | [dd']/g/b/[dd']/- [dd']/b/[dd']/b/ | %66
 [dd']/g/b/[dd']/-!<(! [dd']/b/[dd']/b/!<)! |!f! [^cb][ca]- [ca][c^g]/[ca]/ | %68
 [=cb]/[ca][cf]/!>(! [ce][cd]!>)! |!p! [dd']/g/b/[dd']/- [dd']/b/[dd']/b/ | %70
 [dd']/g/b/[dd']/- [dd']/b/[dd']/b/ | [ee']/[ee']g/ [ea]/[eg]/[ea] | !>![^db]2!<(! z [Bb]!<)! | %73
!f! [ee']/[dd'][Bb]/ [cc'][Bb] | [Bb]/[Aa][Ee]/ [Bb][Aa] | [Bdb]/[Aca][Bdb]/ [cec']/[Bdb]/[Aca] | %76
 [GBg] z !>![gbd'g']2 |:[K:D]!ff!"^Brilliant." [Aca]>B c/a/!>![Acg] | [Aca]>B c/a/!<(!!>![Acg] | %79
 z!<)! [da]/A/ z [da]/A/ | z/ [da]/z/A/!>(! [da]A!>)! | [B^db]>c d/b/!>![Bda] | %82
 [B^db]>c!<(! d/b/[Bda]!<)! | z [eb]/B/ z [eb]/B/ | z/ [eb]/z/B/ [eb]B | %85
 [cgc']/[^B^b]/[cc']/[ee']/- [ee']/[cc'][Aa]/ | z/ [Bgb][^A^a]/ [Bgb]2 | %87
 [Bfb]/[^A^a]/[Bb]/[dd']/- [dd']/[Bb][Ff]/ | z/ [Afa][^G^g]/ [Afa][Af] | [Be][Bf] [Bg]/[Bb][Bg]/ | %90
 [Af][^G^e]/[Af]/ [Bg]/[Af]/[=G=e] | [Fd]A B/AF/ | D z{ABc} d2 |: %93
[K:G]!ff! ^A/[Bd]F/ [=Ac]^A/[Bd]/- | [Bd]/F/[=Ac]/^A/ [Bd][=Ac] | ^A/[Bd]D/ [GB]A/[Bd]/- | %96
 ([Bd]/D/G/=A/) (B/A/G/D/) | z [Ff]- [Ff]/c/d/[Ff]/ | z/ (F/c/d/ f/d/c/A/) | %99
 z [GBe]- [GBe]/B/d/e/ | z/ (G/B/d/ e/d/B/G/) | ^A/[Bd]F/ [=Ac]^A/[Bd]/- | %102
 [Bd]/F/[=Ac]/^A/ [Bd][=Ac] | ^A/[Bd]D/ [GB]A/[Bd]/- | ([Bd]/D/G/=A/) (B/A/G/D/) | %105
 e/_e/d/_d/ c/B/_B/A/ | d/_d/c/B/ _B/A/_A/G/ | E/GE/ D/G/B/d/ | [^CB]/E/[=CA]/D/ [B,DG] z!fine! :| %109
V:2
 [^A,^A]/[B,B][A,A]/ [B,B][A,A]/[B,B]/ | [F,F]/[G,G][E,E]/- [E,E]2 | %2
 [F,F]/[G,G][F,F]/ [G,G][F,F]/[G,G]/ | [^C,^C]/[D,D][B,,B,]/- [B,,B,]2 |[I:staff -1] A/AA/ GG | %5
 F[I:staff +1]{/^G,} A, !>!D,2 | A,/A,A,/ G,G, | F,[A,,A,] !>![D,,D,]2 |: G,[B,D] D,[B,D] | %9
 G,[B,D] D,[B,D] | C,[G,CE] C,[G,C_E] | [G,,G,][G,B,D] D, z | G,[B,D] D,[B,D] | G,[B,D] D,[B,D] | %14
 E,[G,A,^C] A,,[G,A,C] | D,/F,A,/ !>!G,!>!F, | G,[B,D] D,[B,D] | G,[B,D] D,[B,D] | %18
 C,[G,CE] C,[G,CE] | B,,[F,A,B,] [F,A,B,]2 | ^G,,[E,B,D] E,,[E,^G,D] | A,,[A,CE] A,,[A,C_E] | %22
 D,[G,B,D] [D,,D,]/[E,,E,]/[F,,F,] |1 [G,,G,] z !>![D,,D,]2 :|2 [G,,G,] z !>![G,,,G,,]2 |: z4 | %26
 C,[G,CE] C,[G,CE] | C,[G,CE] C,[G,CE] | G,[B,D] D,[B,D] | G,[B,D] D,[B,D] | !>!G,!>!F,!>!E,!>!D, | %31
 G,[B,D] D,[B,D] | G,F,E,D, | G,[B,D] D,[B,D] | C,[G,CE] C,[G,CE] | C,[G,CE] C,[G,CE] | %36
 G,[B,D] D,[B,D] | !>![C,C]2 !>![^C,^C]2 | D,[G,B,D] !>![G,B,D]2 | !>![A,,A,]2 !>![D,,D,]2 | %40
 [G,,G,] z !>![G,,,G,,]2 ::[K:C]"^1st time""^2nd .." C,[G,CE] D,[G,B,F] | G,,[G,B,F] D,[G,B,F] | %43
 C,[G,CE] G,,[G,CE] | C,[G,CE] E,[G,CE] | D,[G,B,F] G,,[G,B,F] | D,[G,B,F] G,,[G,B,F] | %47
 C,[G,CE] [^F,C^D][F,CD] | [G,CE] z z2 | C,[G,CE] D,[G,B,F] | G,,[G,B,F] D,[G,B,F] | %51
 C,[G,CE] G,,[G,CE] | C,[G,CE] [G,CE][G,CE] | A,,[A,^CG] A,,[A,CG] | D,[A,DF] F,[_A,CD] | %55
 G,[CE] G,,[G,B,F] | C,G,, !>![C,,C,]2 :|[K:G][I:staff -1] A/AA/ GG | %58
 F[I:staff +1]{/^G,} A, !>!D,2 | A,/A,A,/ G,G, | F,[A,,A,] !>![D,,D,]2 | G,[B,D] D,[B,D] | %62
 G,[B,D] D,[B,D] | C,[G,CE] C,[G,C_E] | [G,,G,][G,B,D] D, z | G,[B,D] D,[B,D] | G,[B,D] D,[B,D] | %67
 E,[G,A,^C] A,,[G,A,C] | D,/F,A,/ !>!G,!>!F, | G,[B,D] D,[B,D] | G,[B,D] D,[B,D] | %71
 C,[G,CE] C,[G,CE] | B,,[F,A,B,] [F,A,B,]2 | ^G,,[E,B,D] E,,[E,^G,D] | A,,[A,CE] A,,[A,C_E] | %75
 D,[G,B,D] [D,,D,]/[E,,E,]/[F,,F,] | [G,,G,] z !>![G,,G,]2 |:[K:D] E,[G,A,C] A,,[G,A,C] | %78
 E,[G,A,C] A,,[G,A,C] | !>![D,D]!>![E,E]!>![F,F]!>![E,E] | !>![D,D]!>![C,C]!>![B,,B,]!>![A,,A,] | %81
 B,,[F,A,B,^D] ^D,[A,B,D] | B,,[A,B,^D] ^D,[A,B,D] | !>![E,E]!>![F,F]!>![G,G]!>![F,F] | %84
 !>![E,E]!>![D,D]!>![C,C]!>![B,,B,] | E,[A,CG] A,,[A,CG] | E,[A,CG] A,,[A,CG] | %87
 D,[A,DF] A,,[A,DF] | D,[A,DF] A,,[A,DF] | [G,G][F,F][E,E][G,B,E] | A,,[A,DF] A,,[A,CG] | %91
 [D,D][A,,A,] [B,,B,]/[A,,A,][F,,F,]/ | [D,,D,] z{A,B,C} D2 |:[K:G] A,,[D,F,C] D,,[D,F,C] | %94
 A,,[D,F,C] D,,[D,F,C] | G,,[D,G,B,] D,,[D,G,B,] | G,,[D,G,B,] D,,[D,G,B,] | %97
 A,,[D,F,C] D,,[D,F,C] | A,,[D,F,C] D,,[D,F,C] | G,,[D,G,B,] D,,[D,G,B,] | %100
 G,,[D,G,B,] D,,[D,G,B,] | A,,[D,F,C] D,,[D,F,C] | A,,[D,F,C] D,,[D,F,C] | %103
 G,,[D,G,B,] D,,[D,G,B,] | G,,[D,G,B,] D,,[D,G,B,] | ^G,,[E,B,D] A,,[E,A,C] | %106
 F,,[D,A,C] G,,[D,G,B,] | C,[E,A,C] D,[G,B,D] | [A,,A,][D,,D,] [G,,G,] z :| %109

